X:154
T:Moulson's Jig. (p)1657.PLFD.155
T:Motson's Jig. (p)1657.PLFD.155
M:6/4
L:1/4
Q:3/4=110
S:Playford, Dancing Master,Supplement to 3rd Ed.,1657
O:England
H:1657.
Z:Chris Partington.
K:D
d|f>gaa>ba|gafefg|f/g/aAc2A|d3-d2B|
cdee>de|fefg2a|abf^g2e|a3a2:|
|:f/g/|a>bag2f|f3-f2f|f>edc2B|B3-B2B|
cA2d2e|efBc2d|efBc2d|d3-d2:|
